icon_installer/data/icons/scalable/actions/show-month-symbolic.svg

<?xml version="1.0" encoding="UTF-8"?>
<svg height="16px" viewBox="0 0 16 16" width="16px" xmlns="http://www.w3.org/2000/svg">
    <path d="m 3.042969 1 c -1.128907 0 -2.042969 0.914062 -2.042969 2.042969 v 9.875 c 0 1.132812 0.914062 2.042969 2.042969 2.042969 h 9.914062 c 1.128907 0 2.042969 -0.910157 2.042969 -2.042969 v -9.875 c 0 -1.128907 -0.914062 -2.042969 -2.042969 -2.042969 z m -0.042969 4.960938 h 10 v 7 h -10 z m 1 1.039062 v 2 h 2 v -2 z m 3 0 v 2 h 2 v -2 z m 3 0 v 2 h 2 v -2 z m -6 3 v 2 h 2 v -2 z m 3 0 v 2 h 2 v -2 z m 0 0" fill="#222222"/>
</svg>

<svg xmlns="http://www.w3.org/2000/svg" width="16" height="16"><path fill="#222" d="M3.043 1A2.042 2.042 0 0 0 1 3.043v9.875a2.04 2.04 0 0 0 2.043 2.043h9.914A2.04 2.04 0 0 0 15 12.918V3.043A2.042 2.042 0 0 0 12.957 1zM3 5.96h10v7H3zM4 7v2h2V7zm3 0v2h2V7zm3 0v2h2V7zm-6 3v2h2v-2zm3 0v2h2v-2zm0 0"/></svg>
